src/assets/icons/concept-dev.svg

<?xml version="1.0" encoding="UTF-8"?>
<svg width="66px" height="75px" viewBox="0 0 66 75" version="1.1" xmlns="http://www.w3.org/2000/svg" xmlns:xlink="http://www.w3.org/1999/xlink">
    <!-- Generator: Sketch 48.2 (47327) - http://www.bohemiancoding.com/sketch -->
    <title>concept-dev</title>
    <desc>Created with Sketch.</desc>
    <defs></defs>
    <g id="Page-1" stroke="none" stroke-width="1" fill="none" fill-rule="evenodd">
        <g id="concept-dev" transform="translate(-1.000000, 0.000000)" fill="#000000" fill-rule="nonzero">
            <path d="M16.47,4.36 C15.780991,4.77206088 15.538576,5.65357006 15.92,6.36 L20,13.48 C20.4380392,14.1316932 21.3045467,14.335273 21.9869603,13.9468221 C22.6693739,13.5583713 22.9367187,12.7093679 22.6,12 L18.52,4.91 C18.3212453,4.56504934 17.9935133,4.31326007 17.6089982,4.21009749 C17.2244832,4.1069349 16.8147296,4.16086219 16.47,4.36 Z" id="Shape"></path>
            <path d="M7.16,15.21 C6.44202983,14.7957865 5.52421358,15.0420298 5.11000002,15.76 C4.69578646,16.4779702 4.94202984,17.3957864 5.66,17.81 L12.73,21.89 C13.1944453,22.1579492 13.7665596,22.1577659 14.230833,21.8895191 C14.6951065,21.6212722 14.9810049,21.125715 14.980833,20.5895191 C14.9806612,20.0533231 14.6944453,19.5579492 14.23,19.29 L7.16,15.21 Z" id="Shape"></path>
            <path d="M12.15,31.31 C12.15,30.4815729 11.4784271,29.81 10.65,29.81 L2.48,29.81 C1.65157288,29.81 0.98,30.4815729 0.98,31.31 C0.98,32.1384271 1.65157288,32.81 2.48,32.81 L10.65,32.81 C11.4784271,32.81 12.15,32.1384271 12.15,31.31 Z" id="Shape"></path>
            <path d="M12.8,40.71 L5.72,44.8 C5.00202983,45.2142136 4.75578644,46.1320298 5.17,46.85 C5.58421356,47.5679702 6.50202983,47.8142136 7.22,47.4 L14.29,43.32 C15.0079701,42.9057864 15.2542135,41.9879702 14.8399999,41.27 C14.4257864,40.5520299 13.5079702,40.3057865 12.79,40.72 L12.8,40.71 Z" id="Shape"></path>
            <path d="M66,20 L62,20 C61.4477153,20 61,20.4477153 61,21 L61,22 L58,22 C57.4477153,22 57,22.4477153 57,23 L57,29 L54,29 C53.4477153,29 53,29.4477153 53,30 L53,36 L35,36 C34.9148747,36.0059319 34.8308587,36.0227351 34.75,36.05 C34.4025649,35.4063194 33.7314523,35.0036518 33,35 L33,34 C33.7102221,33.9957131 34.3648954,33.6150891 34.72,33 L46,33 C46.5522847,33 47,32.5522847 47,32 L47,17 L52,17 C52.5522847,17 53,16.5522847 53,16 L53,10.82 C54.3775467,10.3329637 55.2038721,8.92433377 54.9567957,7.48426694 C54.7097193,6.04420011 53.4611089,4.99157288 52,4.99157288 C50.5388911,4.99157288 49.2902807,6.04420011 49.0432043,7.48426694 C48.7961279,8.92433377 49.6224533,10.3329637 51,10.82 L51,15 L46,15 C45.4477153,15 45,15.4477153 45,16 L45,31 L34.72,31 C34.3648954,30.3849109 33.7102221,30.0042869 33,30 L33,29 C33.7102221,28.9957131 34.3648954,28.6150891 34.72,28 L41,28 C41.5522847,28 42,27.5522847 42,27 L42,19 C42,18.4477153 41.5522847,18 41,18 L37,18 L37,6 L38,6 C38.5522847,6 39,5.55228475 39,5 L39,1 C39,0.44771525 38.5522847,0 38,0 L34,0 C33.4477153,0 33,0.44771525 33,1 L33,5 C33,5.55228475 33.4477153,6 34,6 L35,6 L35,19 C35,19.5522847 35.4477153,20 36,20 L40,20 L40,26 L34.72,26 C34.3648954,25.3849109 33.7102221,25.0042869 33,25 L33,13.48 C33,12.9277153 32.5522847,12.48 32,12.48 L31.88,12.48 C21.706402,12.5569084 13.4997093,20.8261113 13.5,31 C13.5,36.43 16.55,41.84 19.24,46.61 C20.8073214,49.1333841 22.1044783,51.8148454 23.11,54.61 L22.51,54.61 C21.9577153,54.62933 21.52567,55.0927153 21.545,55.645 C21.56433,56.1972847 22.0277153,56.62933 22.58,56.61 L22.65,56.61 L23.46,56.55 C23.46,56.68 23.46,56.82 23.46,56.95 L23.46,57.55 L22.69,57.61 C22.1377153,57.62933 21.70567,58.0927153 21.725,58.645 C21.74433,59.1972847 22.2077153,59.62933 22.76,59.61 L22.83,59.61 L23.46,59.61 L23.46,60.61 L22.91,60.61 C22.3577153,60.62933 21.9256701,61.0927153 21.9450001,61.645 C21.9643301,62.1972847 22.4277153,62.6293299 22.98,62.61 L23.05,62.61 L23.46,62.61 L23.46,63.61 L23.12,63.61 C22.5677153,63.62933 22.13567,64.0927153 22.155,64.645 C22.17433,65.1972847 22.6377153,65.62933 23.19,65.61 L23.45,65.61 L23.45,66 L23.45,66.23 C23.85,68.76 25.83,70.35 28.23,71.12 C28.6933461,72.5888611 29.933806,73.6790789 31.45,73.95 C31.592618,74.0349541 31.7541416,74.0830675 31.92,74.09 C32.4722847,74.09 32.92,73.6422847 32.92,73.09 L32.92,49 C33.6302221,48.9957131 34.2848954,48.6150891 34.64,48 L45,48 L45,52 L44,52 C43.4477153,52 43,52.4477153 43,53 L43,62 L41.82,62 C41.3329637,60.6224533 39.9243338,59.7961279 38.4842669,60.0432043 C37.0442001,60.2902807 35.9915729,61.5388911 35.9915729,63 C35.9915729,64.4611089 37.0442001,65.7097193 38.4842669,65.9567957 C39.9243338,66.2038721 41.3329637,65.3775467 41.82,64 L44,64 C44.5522847,64 45,63.5522847 45,63 L45,54 L46,54 C46.5522847,54 47,53.5522847 47,53 L47,47 C47,46.4477153 46.5522847,46 46,46 L34.72,46 C34.3648954,45.3849109 33.7102221,45.0042869 33,45 L33,44 C33.7102221,43.9957131 34.3648954,43.6150891 34.72,43 L49,43 L49,47 C49,47.5522847 49.4477153,48 50,48 L52,48 L52,56 C52,56.5522847 52.4477153,57 53,57 L58.59,57 L58.18,57.42 C57.9281277,57.6736586 57.8307134,58.042421 57.924452,58.3873781 C58.0181907,58.7323351 58.2888412,59.0010796 58.6344521,59.0923781 C58.980063,59.1836766 59.3481278,59.0836586 59.6,58.83 L61,57.41 L62.42,58.83 C62.8121222,59.2193607 63.4456393,59.2171222 63.835,58.825 C64.2243607,58.4328778 64.2221222,57.7993607 63.83,57.41 L62.41,56 L63.82,54.59 C64.0718723,54.3363414 64.1692866,53.967579 64.075548,53.6226219 C63.9818093,53.2776649 63.7111588,53.0089204 63.3655479,52.9176219 C63.019937,52.8263234 62.6518722,52.9263414 62.4,53.18 L61,54.58 L59.59,53.17 C59.1978778,52.7806393 58.5643608,52.7828779 58.1750001,53.1750001 C57.7856393,53.5671222 57.7878779,54.2006392 58.18,54.59 L58.59,55 L54,55 L54,47 C54,46.4477153 53.5522847,46 53,46 L51,46 L51,42 C51,41.4477153 50.5522847,41 50,41 L34.72,41 C34.3648954,40.3849109 33.7102221,40.0042869 33,40 L33,39 C33.7314523,38.9963482 34.4025649,38.5936806 34.75,37.95 C34.8308587,37.9772649 34.9148747,37.9940681 35,38 L54,38 C54.5522847,38 55,37.5522847 55,37 L55,31 L58,31 C58.5522847,31 59,30.5522847 59,30 L59,24 L61,24 L61,25 C61,25.5522847 61.4477153,26 62,26 L66,26 C66.5522847,26 67,25.5522847 67,25 L67,21 C67,20.4477153 66.5522847,20 66,20 Z M52,7 C52.5522847,7 53,7.44771525 53,8 C53,8.55228475 52.5522847,9 52,9 C51.4477153,9 51,8.55228475 51,8 C51,7.44771525 51.4477153,7 52,7 Z M35,2 L37,2 L37,4 L35,4 L35,2 Z M39,64 C38.4477153,64 38,63.5522847 38,63 C38,62.4477153 38.4477153,62 39,62 C39.5522847,62 40,62.4477153 40,63 C40,63.5522847 39.5522847,64 39,64 Z M27.2,34 C26.8827274,33.4871163 26.6497688,32.9266653 26.51,32.34 C26.4011882,31.8788324 25.9836615,31.5573369 25.51,31.57 L24,31.57 L24,30.47 L25.53,30.47 C26.0036615,30.4826631 26.4211882,30.1611676 26.53,29.7 C26.6573389,29.1015849 26.8801904,28.5275736 27.19,28 C27.4099778,27.6005263 27.3318266,27.1028268 27,26.79 L26,25.72 L26.75,24.97 L27.79,26 C28.1199423,26.3304721 28.63468,26.3885876 29.03,26.14 C29.5482478,25.816938 30.1156869,25.5805051 30.71,25.44 C30.8123802,25.4155132 30.9102519,25.3750145 31,25.32 L31,27.48 C29.4111972,27.8995972 28.3043376,29.336724 28.3043376,30.98 C28.3043376,32.623276 29.4111972,34.0604028 31,34.48 L31,36.61 C30.9102519,36.5549855 30.8123802,36.5144868 30.71,36.49 C30.1061683,36.3548477 29.5285314,36.1217661 29,35.8 C28.6069203,35.5567786 28.0983658,35.6146629 27.77,35.94 L26.72,37 L26,36.28 L27.09,35.19 C27.3857238,34.8612761 27.4304553,34.3773623 27.2,34 Z M31,32.28 C30.6082313,31.9729187 30.3793873,31.5027767 30.3793873,31.005 C30.3793873,30.5072233 30.6082313,30.0370813 31,29.73 L31,32.28 Z M21.86,45.13 C19.22,40.47 16.5,35.64 16.5,31 C16.5142538,22.8366 22.8539137,16.0815831 31,15.55 L31,21 L30.48,21 C29.9277153,21 29.48,21.4477153 29.48,22 L29.48,23.76 C29.2072743,23.8546958 28.9401736,23.9648749 28.68,24.09 L27.43,22.84 C27.0399625,22.4522764 26.4100375,22.4522764 26.02,22.84 L23.85,25 C23.4622764,25.3900375 23.4622764,26.0199625 23.85,26.41 L25.11,27.67 C24.9851654,27.9268883 24.8749887,28.1906444 24.78,28.46 L23,28.46 C22.4477153,28.46 22,28.9077153 22,29.46 L22,32.52 C22,33.0722847 22.4477153,33.52 23,33.52 L24.79,33.52 C24.8822477,33.7856845 24.9890765,34.0460799 25.11,34.3 L23.84,35.57 C23.4522764,35.9600375 23.4522764,36.5899625 23.84,36.98 L26,39.15 C26.3900375,39.5377236 27.0199625,39.5377236 27.41,39.15 L28.68,37.88 C28.933862,38.0010546 29.1942647,38.1078865 29.46,38.2 L29.46,40 C29.46,40.5522847 29.9077153,41 30.46,41 L31,41 L31,54.05 L26.16,54.4 C25.44,51.49 23.69,48.38 21.86,45.13 Z M31,56.06 L31,57.06 L26.51,57.39 L26.51,57 C26.51,56.8 26.51,56.59 26.51,56.39 L31,56.06 Z M26.5,60.4 L26.5,59.4 L31,59.07 L31,60.07 L26.5,60.4 Z M31,62.08 L31,63.08 L26.51,63.41 L26.51,62.41 L31,62.08 Z M26.5,65.86 L26.5,65.41 L31,65.08 L31,68.62 C28.9,68.41 26.84,67.52 26.5,65.86 Z M65,24 L63,24 L63,22 L65,22 L65,24 Z" id="Shape"></path>
        </g>
    </g>
</svg>

<?xml version="1.0" encoding="utf-8"?>
<!-- Generator: Adobe Illustrator 21.0.0, SVG Export Plug-In . SVG Version: 6.00 Build 0)  -->
<svg version="1.1" id="Layer_1" xmlns="http://www.w3.org/2000/svg" xmlns:xlink="http://www.w3.org/1999/xlink" x="0px" y="0px"
	 viewBox="0 0 66 75" style="enable-background:new 0 0 66 75;" xml:space="preserve">
<style type="text/css">
	.st0{fill:#FFFFFF;}
</style>
<title>concept-dev</title>
<desc>Created with Sketch.</desc>
<g id="Page-1">
	<g id="concept-dev" transform="translate(-1.000000, 0.000000)">
		<path id="Shape" class="st0" d="M16.5,4.4c-0.7,0.4-0.9,1.3-0.5,2l4.1,7.1c0.4,0.7,1.3,0.9,2,0.5c0.7-0.4,0.9-1.2,0.6-1.9
			l-4.1-7.1c-0.2-0.3-0.5-0.6-0.9-0.7C17.2,4.1,16.8,4.2,16.5,4.4z"/>
		<path id="Shape_1_" class="st0" d="M7.2,15.2c-0.7-0.4-1.6-0.2-2,0.6c-0.4,0.7-0.2,1.6,0.5,2l7.1,4.1c0.5,0.3,1,0.3,1.5,0
			c0.5-0.3,0.8-0.8,0.8-1.3s-0.3-1-0.8-1.3L7.2,15.2z"/>
		<path id="Shape_2_" class="st0" d="M12.1,31.3c0-0.8-0.7-1.5-1.5-1.5H2.5c-0.8,0-1.5,0.7-1.5,1.5c0,0.8,0.7,1.5,1.5,1.5h8.2
			C11.5,32.8,12.1,32.1,12.1,31.3z"/>
		<path id="Shape_3_" class="st0" d="M12.8,40.7l-7.1,4.1c-0.7,0.4-1,1.3-0.5,2c0.4,0.7,1.3,1,2,0.6l7.1-4.1c0.7-0.4,1-1.3,0.6-2
			C14.4,40.6,13.5,40.3,12.8,40.7L12.8,40.7z"/>
		<path id="Shape_4_" class="st0" d="M66,20h-4c-0.6,0-1,0.4-1,1v1h-3c-0.6,0-1,0.4-1,1v6h-3c-0.6,0-1,0.4-1,1v6H35
			c-0.1,0-0.2,0-0.2,0c-0.3-0.6-1-1-1.8-1v-1c0.7,0,1.4-0.4,1.7-1H46c0.6,0,1-0.4,1-1V17h5c0.6,0,1-0.4,1-1v-5.2
			c1.4-0.5,2.2-1.9,2-3.3C54.7,6,53.5,5,52,5S49.3,6,49,7.5c-0.2,1.4,0.6,2.8,2,3.3V15h-5c-0.6,0-1,0.4-1,1v15H34.7
			c-0.4-0.6-1-1-1.7-1v-1c0.7,0,1.4-0.4,1.7-1H41c0.6,0,1-0.4,1-1v-8c0-0.6-0.4-1-1-1h-4V6h1c0.6,0,1-0.4,1-1V1c0-0.6-0.4-1-1-1h-4
			c-0.6,0-1,0.4-1,1v4c0,0.6,0.4,1,1,1h1v13c0,0.6,0.4,1,1,1h4v6h-5.3c-0.4-0.6-1-1-1.7-1V13.5c0-0.6-0.4-1-1-1h-0.1
			C21.7,12.6,13.5,20.8,13.5,31c0,5.4,3,10.8,5.7,15.6c1.6,2.5,2.9,5.2,3.9,8h-0.6c-0.6,0-1,0.5-1,1c0,0.6,0.5,1,1,1h0.1l0.8-0.1
			c0,0.1,0,0.3,0,0.4v0.6l-0.8,0.1c-0.6,0-1,0.5-1,1c0,0.6,0.5,1,1,1h0.1h0.6v1h-0.5c-0.6,0-1,0.5-1,1c0,0.6,0.5,1,1,1H23h0.4v1
			h-0.3c-0.6,0-1,0.5-1,1c0,0.6,0.5,1,1,1h0.3V66v0.2c0.4,2.5,2.4,4.1,4.8,4.9c0.5,1.5,1.7,2.6,3.2,2.8c0.1,0.1,0.3,0.1,0.5,0.1
			c0.6,0,1-0.4,1-1V49c0.7,0,1.4-0.4,1.7-1H45v4h-1c-0.6,0-1,0.4-1,1v9h-1.2c-0.5-1.4-1.9-2.2-3.3-2C37,60.3,36,61.5,36,63
			c0,1.5,1.1,2.7,2.5,3s2.8-0.6,3.3-2H44c0.6,0,1-0.4,1-1v-9h1c0.6,0,1-0.4,1-1v-6c0-0.6-0.4-1-1-1H34.7c-0.4-0.6-1-1-1.7-1v-1
			c0.7,0,1.4-0.4,1.7-1H49v4c0,0.6,0.4,1,1,1h2v8c0,0.6,0.4,1,1,1h5.6l-0.4,0.4c-0.3,0.3-0.3,0.6-0.3,1c0.1,0.3,0.4,0.6,0.7,0.7
			c0.3,0.1,0.7,0,1-0.3l1.4-1.4l1.4,1.4c0.4,0.4,1,0.4,1.4,0c0.4-0.4,0.4-1,0-1.4L62.4,56l1.4-1.4c0.3-0.3,0.3-0.6,0.3-1
			c-0.1-0.3-0.4-0.6-0.7-0.7s-0.7,0-1,0.3L61,54.6l-1.4-1.4c-0.4-0.4-1-0.4-1.4,0c-0.4,0.4-0.4,1,0,1.4l0.4,0.4H54v-8
			c0-0.6-0.4-1-1-1h-2v-4c0-0.6-0.4-1-1-1H34.7c-0.4-0.6-1-1-1.7-1v-1c0.7,0,1.4-0.4,1.8-1c0.1,0,0.2,0,0.2,0h19c0.6,0,1-0.4,1-1v-6
			h3c0.6,0,1-0.4,1-1v-6h2v1c0,0.6,0.4,1,1,1h4c0.6,0,1-0.4,1-1v-4C67,20.4,66.6,20,66,20z M52,7c0.6,0,1,0.4,1,1s-0.4,1-1,1
			s-1-0.4-1-1S51.4,7,52,7z M35,2h2v2h-2V2z M39,64c-0.6,0-1-0.4-1-1s0.4-1,1-1s1,0.4,1,1S39.6,64,39,64z M27.2,34
			c-0.3-0.5-0.6-1.1-0.7-1.7c-0.1-0.5-0.5-0.8-1-0.8H24v-1.1h1.5c0.5,0,0.9-0.3,1-0.8c0.1-0.6,0.4-1.2,0.7-1.7
			c0.2-0.4,0.1-0.9-0.2-1.2l-1-1.1l0.8-0.8l1,1c0.3,0.3,0.8,0.4,1.2,0.1c0.5-0.3,1.1-0.6,1.7-0.7c0.1,0,0.2-0.1,0.3-0.1v2.2
			c-1.6,0.4-2.7,1.9-2.7,3.5s1.1,3.1,2.7,3.5v2.1c-0.1-0.1-0.2-0.1-0.3-0.1c-0.6-0.1-1.2-0.4-1.7-0.7c-0.4-0.2-0.9-0.2-1.2,0.1
			L26.7,37L26,36.3l1.1-1.1C27.4,34.9,27.4,34.4,27.2,34z M31,32.3c-0.4-0.3-0.6-0.8-0.6-1.3c0-0.5,0.2-1,0.6-1.3V32.3z M21.9,45.1
			c-2.6-4.7-5.4-9.5-5.4-14.1c0-8.2,6.4-14.9,14.5-15.4V21h-0.5c-0.6,0-1,0.4-1,1v1.8c-0.3,0.1-0.5,0.2-0.8,0.3l-1.2-1.2
			c-0.4-0.4-1-0.4-1.4,0L23.9,25c-0.4,0.4-0.4,1,0,1.4l1.3,1.3c-0.1,0.3-0.2,0.5-0.3,0.8H23c-0.6,0-1,0.4-1,1v3.1c0,0.6,0.4,1,1,1
			h1.8c0.1,0.3,0.2,0.5,0.3,0.8l-1.3,1.3c-0.4,0.4-0.4,1,0,1.4l2.2,2.2c0.4,0.4,1,0.4,1.4,0l1.3-1.3c0.3,0.1,0.5,0.2,0.8,0.3V40
			c0,0.6,0.4,1,1,1H31v13l-4.8,0.4C25.4,51.5,23.7,48.4,21.9,45.1z M31,56.1v1l-4.5,0.3V57c0-0.2,0-0.4,0-0.6L31,56.1z M26.5,60.4
			v-1l4.5-0.3v1L26.5,60.4z M31,62.1v1l-4.5,0.3v-1L31,62.1z M26.5,65.9v-0.4l4.5-0.3v3.5C28.9,68.4,26.8,67.5,26.5,65.9z M65,24h-2
			v-2h2V24z"/>
	</g>
</g>
</svg>
